img/block-5-mobile.svg

<svg width="358" height="124" viewBox="0 0 358 124" fill="none" xmlns="http://www.w3.org/2000/svg">
<path d="M5.02457 96.4398L5.00416 24.6413C5.00095 13.3475 14.3492 4.21763 25.6421 4.48547L335.709 11.8395C346.504 12.0956 355.078 20.8734 355.079 31.6695L355.081 87.0194C355.081 97.8964 346.383 106.848 335.504 107.167L25.4557 116.262C14.2454 116.591 5.02776 107.648 5.02457 96.4398Z" fill="#FF8D07"/>
<path d="M4.02879 93.4441L4.00558 21.6455C4.00193 10.3517 13.3498 1.22204 24.6427 1.4902L334.709 8.85297C345.504 9.10932 354.079 17.8874 354.08 28.6836L354.084 84.0335C354.085 94.9106 345.387 103.862 334.508 104.181L24.4606 113.267C13.2504 113.595 4.03242 104.652 4.02879 93.4441Z" stroke="black"/>
</svg>

<svg width="358" height="124" viewBox="0 0 358 124" fill="none" xmlns="http://www.w3.org/2000/svg"><path d="M5.025 96.44l-.02-71.799C5 13.348 14.348 4.218 25.641 4.485L335.71 11.84a19.807 19.807 0 0119.37 19.83l.002 55.35c0 10.877-8.698 19.829-19.577 20.148l-310.048 9.095c-11.21.329-20.428-8.614-20.431-19.822z" fill="#FF8D07"/><path d="M4.029 93.444l-.023-71.799C4.002 10.352 13.35 1.223 24.643 1.49l310.066 7.363c10.795.256 19.37 9.034 19.371 19.83l.004 55.35c.001 10.878-8.697 19.829-19.576 20.148l-310.047 9.086c-11.21.328-20.429-8.615-20.432-19.823z" stroke="#000"/></svg>
